Sources/FrostedUI/Resources/Icons.xcassets/cartRemove32.imageset/cart-remove-32.svg

<svg width="32" height="32" viewBox="0 0 32 32" fill="none" xmlns="http://www.w3.org/2000/svg" data-fui-icon="true">
  <path
    d="M10.666 22.917C12.0007 22.917 13.083 23.9992 13.083 25.334C13.0826 26.6684 12.0005 27.75 10.666 27.75C9.33189 27.7496 8.25037 26.6682 8.25 25.334C8.25 23.9995 9.33166 22.9174 10.666 22.917ZM22.666 22.917C24.0008 22.917 25.083 23.9992 25.083 25.334C25.0826 26.6684 24.0005 27.75 22.666 27.75C21.3318 27.7496 20.2504 26.6682 20.25 25.334C20.25 23.9995 21.3316 22.9174 22.666 22.917ZM10.666 24.417C10.1601 24.4174 9.75 24.8279 9.75 25.334C9.75037 25.8397 10.1603 26.2496 10.666 26.25C11.1721 26.25 11.5826 25.84 11.583 25.334C11.583 24.8277 11.1723 24.417 10.666 24.417ZM22.666 24.417C22.16 24.4174 21.75 24.8279 21.75 25.334C21.7504 25.8398 22.1602 26.2496 22.666 26.25C23.1721 26.25 23.5826 25.84 23.583 25.334C23.583 24.8277 23.1723 24.417 22.666 24.417ZM3.02637 2.91699C4.33725 2.91699 5.46655 3.84251 5.72363 5.12793L8.30664 18.043C8.48595 18.9385 9.27234 19.5837 10.1855 19.584H23.7793C24.7036 19.584 25.4962 18.9236 25.6641 18.0146L27.5957 7.53125C27.6707 7.12401 28.0615 6.85487 28.4688 6.92969C28.8761 7.00472 29.1453 7.3954 29.0703 7.80273L27.1396 18.2861C26.8408 19.9068 25.4273 21.084 23.7793 21.084H10.1855C8.55726 21.0837 7.15541 19.9337 6.83594 18.3369L4.25293 5.42188C4.13607 4.83759 3.62223 4.41699 3.02637 4.41699H2.33301C1.91908 4.41679 1.58321 4.08092 1.58301 3.66699C1.58301 3.2529 1.91896 2.91719 2.33301 2.91699H3.02637ZM19.5332 5.73926C19.826 5.44642 20.3008 5.44653 20.5938 5.73926C20.8866 6.03215 20.8866 6.50691 20.5938 6.7998L18.0596 9.33301L20.5938 11.8672C20.8866 12.1601 20.8866 12.6348 20.5938 12.9277C20.3008 13.2203 19.826 13.2205 19.5332 12.9277L16.999 10.3936L14.4658 12.9277C14.1729 13.2203 13.698 13.2205 13.4053 12.9277C13.1127 12.635 13.1128 12.1601 13.4053 11.8672L15.9385 9.33301L13.4053 6.7998C13.1125 6.50703 13.1127 6.03218 13.4053 5.73926C13.6982 5.44636 14.1729 5.44636 14.4658 5.73926L16.999 8.27246L19.5332 5.73926Z"
    fill="currentColor"
  />
</svg>

<svg xmlns="http://www.w3.org/2000/svg" width="32" height="32" fill="none" data-fui-icon="true" viewBox="0 0 32 32"><path fill="currentColor" d="M10.666 22.917a2.417 2.417 0 1 1 0 4.834 2.417 2.417 0 0 1 0-4.834m12 0a2.417 2.417 0 1 1 0 4.834 2.417 2.417 0 0 1 0-4.834m-12 1.5a.917.917 0 1 0 .002 1.834.917.917 0 0 0-.002-1.834m12 0a.917.917 0 1 0 .002 1.834.917.917 0 0 0-.002-1.834m-19.64-21.5c1.311 0 2.44.926 2.698 2.21l2.583 12.916c.179.896.965 1.54 1.878 1.541H23.78c.925 0 1.717-.66 1.885-1.57l1.932-10.483a.75.75 0 0 1 1.474.272l-1.93 10.483a3.42 3.42 0 0 1-3.36 2.798H10.184a3.42 3.42 0 0 1-3.35-2.747L4.254 5.422a1.25 1.25 0 0 0-1.227-1.005h-.693a.75.75 0 0 1 0-1.5zm16.507 2.822a.75.75 0 0 1 1.06 1.06L18.06 9.334l2.534 2.534a.75.75 0 0 1-1.06 1.06l-2.535-2.533-2.533 2.534a.75.75 0 0 1-1.06-1.06l2.532-2.535L13.406 6.8a.75.75 0 0 1 1.06-1.06L17 8.271z"/></svg>
